images/started/play-button-circle.svg

<svg width="100" height="100" viewBox="0 0 100 100" fill="none" xmlns="http://www.w3.org/2000/svg">
<path fill-rule="evenodd" clip-rule="evenodd" d="M50 100C77.6142 100 100 77.6142 100 50C100 22.3858 77.6142 0 50 0C22.3858 0 0 22.3858 0 50C0 77.6142 22.3858 100 50 100ZM42.1875 68.3402L70.3125 52.62C72.3958 51.4556 72.3958 48.5444 70.3125 47.38L42.1875 31.6598C40.1042 30.4954 37.5 31.9509 37.5 34.2799V65.7201C37.5 68.049 40.1042 69.5046 42.1875 68.3402Z" fill="white" fill-opacity="0.3"/>
</svg>

<svg xmlns="http://www.w3.org/2000/svg" width="100" height="100" fill="none" viewBox="0 0 100 100"><path fill="#fff" fill-opacity=".3" fill-rule="evenodd" d="M50 100c27.614 0 50-22.386 50-50S77.614 0 50 0 0 22.386 0 50s22.386 50 50 50m-7.812-31.66 28.124-15.72a2.978 2.978 0 0 0 0-5.24L42.189 31.66c-2.084-1.165-4.688.29-4.688 2.62v31.44c0 2.329 2.604 3.785 4.688 2.62" clip-rule="evenodd"/></svg>
